common/src/main/resources/files/plugins/datagrip/impalaFileType.svg

<!--
  - The MIT License (MIT)
  -
  - Copyright (c) 2015-2024 Elior "Mallowigi" Boukhobza
  -
  - Permission is hereby granted, free of charge, to any person obtaining a copy
  - of this software and associated documentation files (the "Software"), to deal
  - in the Software without restriction, including without limitation the rights
  - to use, copy, modify, merge, publish, distribute, sublicense, and/or sell
  - copies of the Software, and to permit persons to whom the Software is
  - furnished to do so, subject to the following conditions:
  -
  - The above copyright notice and this permission notice shall be included in all
  - copies or substantial portions of the Software.
  -
  - THE SOFTWARE IS PROVIDED "AS IS", WITHOUT WARRANTY OF ANY KIND, EXPRESS OR
  - IMPLIED, INCLUDING BUT NOT LIMITED TO THE WARRANTIES OF MERCHANTABILITY,
  - FITNESS FOR A PARTICULAR PURPOSE AND NONINFRINGEMENT. IN NO EVENT SHALL THE
  - AUTHORS OR COPYRIGHT HOLDERS BE LIABLE FOR ANY CLAIM, DAMAGES OR OTHER
  - LIABILITY, WHETHER IN AN ACTION OF CONTRACT, TORT OR OTHERWISE, ARISING FROM,
  - OUT OF OR IN CONNECTION WITH THE SOFTWARE OR THE USE OR OTHER DEALINGS IN THE
  - SOFTWARE.
  -->
<svg data-big="true" width="16px" height="16px" viewBox="0 0 16 16" fill="#3574F0" xmlns="http://www.w3.org/2000/svg">
  <path
    d="M8.12068 14.5926C8.26137 14.7383 8.20093 14.89 8.10198 15C8.77821 14.8128 9.13733 14.6743 9.33808 14.364C10.4568 12.6351 10.2573 11.1866 10.4614 10.9554C10.5811 10.8198 10.8351 10.743 10.8503 10.4727C10.8503 10.4727 11.2062 10.4336 11.305 10.3689C10.99 10.3146 10.6091 10.0731 10.689 9.80977C10.8524 9.27118 11.9918 8.93314 12.2285 8.65175C12.7426 8.04062 12.7178 7.59915 12.6542 7.0056C11.5867 7.94818 10.6832 8.52904 10.4574 8.69793C10.3643 8.76751 10.1851 8.81245 10.0555 8.80177C9.9528 8.79331 9.88989 8.74411 9.83858 8.67107C9.7715 8.57558 9.86224 8.42668 9.90868 8.27207C9.99964 7.96924 10.19 7.71795 10.3326 7.55791C10.8712 6.95321 11.6991 6.46695 12.2913 6.11525C12.2913 6.11525 13.4786 3.25037 9.8869 1C12.3719 3.14895 11.2084 5.64465 11.2084 5.64465C11.2084 5.64465 8.91014 7.01147 8.71815 8.05908C8.5078 9.20684 9.63007 9.32212 9.63007 10.0731C9.63007 10.5766 8.81996 10.9273 8.59379 11.8461C8.43163 12.505 8.88284 13.1974 8.77821 13.3404C8.74014 13.3924 8.66387 13.4755 8.58448 13.536C8.50508 13.5965 8.45984 13.6189 8.37384 13.6651C8.29121 13.7095 8.23126 13.768 8.15482 13.768C8.04719 13.768 7.93491 13.6738 7.80446 13.6009C7.64498 13.5119 7.39189 13.3789 7.39189 13.3789L7.37502 13.3855C7.37502 13.3855 7.31839 13.5837 7.47982 13.6494C7.75241 13.7603 8.26178 13.891 8.12068 14.2202C8.01788 14.4599 7.31793 14.364 7.31793 14.364C7.31793 14.364 7.44968 14.4201 7.62607 14.4459C7.78816 14.4695 8.01691 14.4852 8.12068 14.5926Z"
  />
  <path
    d="M5.22115 10.4101C5.22115 10.4101 5.57945 10.229 5.96165 10.2466C6.37801 10.2659 6.61427 10.5049 6.7881 10.8099C7.01782 11.213 7.12572 11.7173 7.15349 11.9977C6.89989 11.6263 6.71587 11.2277 6.54657 11.0282C6.47657 10.9458 6.40246 10.9087 6.33949 10.8999C6.16983 10.8763 6.03983 10.9118 5.90988 10.8318C5.66167 10.6791 5.80421 10.5376 5.61416 10.4638C5.45043 10.4002 5.22115 10.4101 5.22115 10.4101Z"
  />
  <path d="M3.37445 7.5759C3.97285 7.79199 4.74916 8.58483 4.9774 9.09382C3.99496 8.70306 3.46526 8.17652 3.37445 7.5759Z"
  />
  <path
    d="M4.08637 6.45378C4.17049 6.50814 5.98455 7.4975 5.94529 9.05539C6.56302 9.00635 7.06144 8.79084 7.04897 8.42636C6.99641 6.88943 4.73227 5.80247 4.61355 5.57768C4.49482 5.35288 3.68091 2.96231 5.90201 1.00675C3.81805 2.38705 3.31514 3.90271 3.31245 4.94292C3.31086 5.5613 3.45668 6.0156 3.63275 6.1627C3.77388 6.2806 3.99897 6.3973 4.08637 6.45378Z"
  />
</svg>

<svg xmlns="http://www.w3.org/2000/svg" width="16" height="16" fill="#3574F0" data-big="true"><path d="M8.12 14.593c.141.145.08.297-.018.407.676-.187 1.035-.326 1.236-.636 1.119-1.729.92-3.177 1.123-3.409.12-.135.374-.212.39-.482 0 0 .355-.04.454-.104-.315-.054-.696-.296-.616-.56.163-.538 1.303-.876 1.54-1.157.514-.611.489-1.053.425-1.646-1.067.942-1.97 1.523-2.197 1.692a.68.68 0 0 1-.402.104.28.28 0 0 1-.216-.13c-.068-.096.023-.245.07-.4.09-.303.281-.554.424-.714.538-.605 1.366-1.091 1.958-1.443 0 0 1.188-2.865-2.404-5.115 2.485 2.149 1.321 4.645 1.321 4.645S8.91 7.01 8.718 8.059c-.21 1.148.912 1.263.912 2.014 0 .504-.81.854-1.036 1.773-.162.659.289 1.351.184 1.494a1 1 0 0 1-.194.196c-.079.06-.124.083-.21.13-.083.043-.143.102-.22.102-.107 0-.22-.094-.35-.167-.159-.09-.412-.222-.412-.222l-.017.007s-.057.198.105.263c.272.111.782.242.64.571-.102.24-.802.144-.802.144s.132.056.308.082c.162.024.39.04.495.147M5.221 10.41s.358-.181.74-.163c.417.019.653.258.827.563.23.403.338.907.365 1.188-.253-.372-.437-.77-.606-.97a.34.34 0 0 0-.208-.128c-.17-.024-.3.012-.43-.068-.247-.153-.105-.294-.295-.368-.164-.064-.393-.054-.393-.054M3.374 7.576c.599.216 1.375 1.009 1.603 1.518-.982-.39-1.512-.917-1.603-1.518M4.086 6.454c.084.054 1.899 1.043 1.86 2.601.617-.049 1.115-.264 1.103-.629-.053-1.537-2.317-2.624-2.435-2.848-.12-.225-.933-2.616 1.288-4.571-2.084 1.38-2.587 2.896-2.59 3.936-.001.618.145 1.073.32 1.22.142.118.367.234.454.29"/></svg>
